X:1
T:Amanta tradito II-Dov'io credea
T:Giovanni Stefani
T:Source : Affetti amorosi-Canzonette ad una voce sola---Venetia---A.Vincenti---1621. Editor : André Vierendeels (17/11/15).
T:Notes: Original clefs Editorial accidentals above tha staff Alfabetto et intavolatura per chitarra Spagnola Terza impressione (first print:1618)
T:Dov'io credea-Amante tradito I
C:Giovanni Stefani
%%score 1 { ( 2 3 ) | 4 }
L:1/8
Q:1/4=80
M:4/4
K:F
V:1 treble nm="Soprano" snm="S"
V:2 treble nm="BC" snm="BC"
V:3 treble 
V:4 bass 
V:1
 B6 GG | G4 GGGG | c6 G2 | A4 A4 :: z ABc d>d d>d | d8 | defe d4 | c4 z2 BB | B2 cd A4 | %9
w: Dov' io cre-|de- a le mie spe-|ran- ze'ha-|ve- re,|i- vi tro- vai sma- ri- ta|piu|la _ _ _ fe-|de, co- si|va chi trop- p'a-|
w: Il cor sin-|ce- ro, che con fe-|de a-|ma- va,|sen- za spe- me tra- di- to'al|fin|si _ _ _ ve-|de, * *||
w: Il mi- o'a-|mor, la mia fe- d'e|l'al- tru'in-|gan- no,|d'un in- fi- ni- to duol mi|fan-|no'he- * * * re-|de, * *||
w: Las- so, ch'io|ben m'ac- cor- go'e tar-|di il|veg- gio,|che fe- de non puo dar chi|non|ha _ _ _ fe-|de, * *||
 G GAB c4- | c2 B>A A4 | !fermata!G8 :| %12
w: ma e _ _ _|_ trop- po cre-|de.|
w: |||
w: |||
w: |||
V:2
 d8 | B4 B4 | c4 c4 | A4 A4 :: c4 B4 | B8 | A4 =B4 | G4 B4 | B4 d4 | =B4 G2 A2- | A2 G4 ^F2 | %11
 !fermata!G8 :| %12
V:3
 B8 | D4 G4 | G8 | ^F8 :: A4 D4 | F4 G4 | F4 D4 | E4 D4 | G4 ^F4 | D6 C2 | F2 _E2 DE D2 | =B,8 :| %12
V:4
 G,,8 | G,,4 _E,4 | _E,8 | D,8 :: F,2 D,C, B,,4- |"^-natural" B,,2 A,,2 G,,4 | F,,4 G,,4 | %7
 C,4 G,4 | _E,4 D,4 | G,,4- G,, C,D,E, | F,2 G,2 D,4 | !fermata!G,,8 :| %12

